X:5090
T:The New Owner
M:12/8
R:Slide
L:1/8
Q:180
C:Aidan Crossey
K:EDor
|:BdB AFE F2F DFA|BdB AFA Bcd ecA|
BdB AFE F2F DFA|BdB AFE F2D D3:||
|:Bcd efe fgf efe|Bcd efe fgf e3|
b2g a2f g2e f2d|efe e2d efe e3:||
